public/brands/react-router-light.svg

<?xml version="1.0" encoding="UTF-8"?>
<svg width="256px" height="140px" viewBox="0 0 256 140" version="1.1" xmlns="http://www.w3.org/2000/svg" xmlns:xlink="http://www.w3.org/1999/xlink">
    <!-- Generator: Sketch 40.3 (33839) - http://www.bohemiancoding.com/sketch -->
    <title>Group</title>
    <desc>Created with Sketch.</desc>
    <defs></defs>
    <g id="Page-1" stroke="none" stroke-width="1" fill="none" fill-rule="evenodd">
        <g id="Group">
            <path d="M190.317684,91.214 C185.491684,92.789 180.302684,93.273 175.261684,94.156 C173.889684,94.396 172.442684,94.182 171.056684,94.374 C160.303684,95.866 156.240684,100.173 154.721684,111.623 C153.913684,117.718 152.309684,123.511 148.811684,128.697 C142.901684,137.456 131.420684,141.431 121.594684,138.009 C111.076684,134.346 104.705684,124.759 105.555684,113.874 C106.320684,104.067 114.066684,95.403 124.945684,92.885 C130.038684,91.706 135.323684,91.245 140.549684,90.769 C150.304684,89.882 154.613684,85.605 156.238684,76.013 C157.173684,70.494 156.340684,65.287 155.116684,60.081 C153.247684,52.124 147.453684,48.427 137.726684,47.719 C132.418684,47.332 127.018684,46.562 121.939684,45.036 C111.247684,41.821 105.022684,32.539 105.515684,21.65 C105.947684,12.115 113.712684,2.831 123.039684,0.699 C134.089684,-1.828 145.090684,2.591 149.789684,12.432 C152.255684,17.596 153.610684,23.446 154.575684,29.137 C156.304684,39.341 160.358684,43.3 170.536684,44.406 C177.118684,45.122 183.825684,45.938 190.102684,47.902 C199.634684,50.885 205.360684,59.768 205.358684,69.64 C205.357684,79.297 199.447684,88.235 190.317684,91.214 L190.317684,91.214 Z" id="Shape" fill="#62DAFB"></path>
            <path d="M78.0720006,92.782 C65.2940006,92.784 54.8620006,82.355 54.8600006,69.579 C54.8580006,56.802 65.2870006,46.369 78.0630006,46.367 C90.8400006,46.365 101.272001,56.794 101.274001,69.57 C101.276001,82.347 90.8470006,92.78 78.0720006,92.782 L78.0720006,92.782 Z" id="Shape" fill="#EEEEEE"></path>
            <path d="M23.1300737,139.2 C10.3630737,139.168 -0.0319263159,128.703 7.36840638e-05,115.915 C0.0320736841,103.148 10.4960737,92.753 23.2840737,92.786 C36.0510737,92.817 46.4460737,103.282 46.4140737,116.07 C46.3820737,128.837 35.9180737,139.232 23.1300737,139.2 L23.1300737,139.2 Z" id="Shape" fill="#EEEEEE"></path>
            <path d="M232.962386,139.2 C220.162386,139.273 209.653386,128.92 209.580386,116.167 C209.507386,103.368 219.860386,92.858 232.613386,92.786 C245.412386,92.712 255.921386,103.064 255.995386,115.818 C256.068386,128.617 245.715386,139.127 232.962386,139.2 L232.962386,139.2 Z" id="Shape" fill="#EEEEEE"></path>
        </g>
    </g>
</svg>

<svg width="256" height="140" viewBox="0 0 256 140" xmlns="http://www.w3.org/2000/svg"><title>Group</title><g fill="none" fill-rule="evenodd"><path d="M190.318 91.214c-4.826 1.575-10.015 2.059-15.056 2.942-1.372.24-2.82.026-4.205.218-10.753 1.492-14.816 5.799-16.335 17.249-.808 6.095-2.412 11.888-5.91 17.074-5.91 8.759-17.391 12.734-27.217 9.312-10.518-3.663-16.89-13.25-16.04-24.135.766-9.807 8.512-18.471 19.39-20.989 5.094-1.179 10.379-1.64 15.605-2.116 9.755-.887 14.064-5.164 15.689-14.756.935-5.519.102-10.726-1.122-15.932-1.87-7.957-7.663-11.654-17.39-12.362-5.308-.387-10.708-1.157-15.787-2.683-10.692-3.215-16.917-12.497-16.424-23.386.432-9.535 8.197-18.819 17.524-20.951 11.05-2.527 22.05 1.892 26.75 11.733 2.466 5.164 3.82 11.014 4.786 16.705 1.729 10.204 5.783 14.163 15.96 15.269 6.583.716 13.29 1.532 19.567 3.496 9.532 2.983 15.258 11.866 15.256 21.738-.001 9.657-5.911 18.595-15.041 21.574z" fill="#62DAFB"/><path d="M78.072 92.782c-12.778.002-23.21-10.427-23.212-23.203-.002-12.777 10.427-23.21 23.203-23.212 12.777-.002 23.209 10.427 23.211 23.203.002 12.777-10.427 23.21-23.202 23.212zM23.13 139.2C10.363 139.168-.032 128.703 0 115.915c.032-12.767 10.496-23.162 23.284-23.129 12.767.031 23.162 10.496 23.13 23.284-.032 12.767-10.496 23.162-23.284 23.13zM232.962 139.2c-12.8.073-23.309-10.28-23.382-23.033-.073-12.799 10.28-23.309 23.033-23.381 12.8-.074 23.308 10.278 23.382 23.032.073 12.799-10.28 23.309-23.033 23.382z" fill="#EEE"/></g></svg>
